flags/language/en-us.svg

<svg width="512" height="512" viewBox="0 0 512 512" fill="none" xmlns="http://www.w3.org/2000/svg">
<rect width="512" height="512" fill="var(--flag-palette-white, #eeeeee)"/>
<path d="M0 122.435V55.6519H512V122.435H0Z" fill="var(--flag-palette-bright-red, #d80027)"/>
<path d="M0 256V189.217H512V256H0Z" fill="var(--flag-palette-bright-red, #d80027)"/>
<path d="M0 389.565V322.782H512V389.565H0Z" fill="var(--flag-palette-bright-red, #d80027)"/>
<path d="M0 512H512V456.348H0V512Z" fill="var(--flag-palette-bright-red, #d80027)"/>
<rect width="256" height="256" fill="var(--flag-palette-blue, #0052b4)"/>
<path fill-rule="evenodd" clip-rule="evenodd" d="M44.7999 6.40039L53.4212 32.9341H81.3204L58.7495 49.3329L67.3708 75.8666L44.7999 59.4679L22.2289 75.8666L30.8503 49.3329L8.2793 32.9341H36.1785L44.7999 6.40039ZM128 6.40039L136.621 32.9341H164.52L141.949 49.3329L150.571 75.8666L128 59.4679L105.429 75.8666L114.05 49.3329L91.4792 32.9341H119.378L128 6.40039ZM219.821 32.9341L211.2 6.40039L202.579 32.9341H174.679L197.25 49.3329L188.629 75.8666L211.2 59.4679L233.771 75.8666L225.15 49.3329L247.72 32.9341H219.821ZM44.7999 89.5996L53.4212 116.133H81.3204L58.7495 132.532L67.3708 159.066L44.7999 142.667L22.2289 159.066L30.8503 132.532L8.2793 116.133H36.1785L44.7999 89.5996ZM136.621 116.133L128 89.5996L119.378 116.133H91.4792L114.05 132.532L105.429 159.066L128 142.667L150.571 159.066L141.949 132.532L164.52 116.133H136.621ZM211.2 89.5996L219.821 116.133H247.72L225.15 132.532L233.771 159.066L211.2 142.667L188.629 159.066L197.25 132.532L174.679 116.133H202.579L211.2 89.5996ZM53.4212 199.334L44.7999 172.8L36.1785 199.334H8.2793L30.8503 215.732L22.2289 242.266L44.7999 225.867L67.3708 242.266L58.7495 215.732L81.3204 199.334H53.4212ZM128 172.8L136.621 199.334H164.52L141.949 215.732L150.571 242.266L128 225.867L105.429 242.266L114.05 215.732L91.4792 199.334H119.378L128 172.8ZM219.821 199.334L211.2 172.8L202.579 199.334H174.679L197.25 215.732L188.629 242.266L211.2 225.867L233.771 242.266L225.15 215.732L247.72 199.334H219.821Z" fill="var(--flag-palette-white, #eeeeee)"/>
<path d="M512 0L512 512L16.0005 512L192.001 336L192.001 320L224.001 288L288.001 288L288.001 224L512 0Z" fill="var(--flag-palette-white, #eeeeee)"/>
<path d="M320.001 368L320.001 512L464 512L320.001 368Z" fill="var(--flag-palette-blue, #0052b4)"/>
<path d="M48.0005 512L192.001 368L192.001 512L48.0005 512Z" fill="var(--flag-palette-blue, #0052b4)"/>
<path d="M368.001 320L512 464L512 320L368.001 320Z" fill="var(--flag-palette-blue, #0052b4)"/>
<path d="M512 192L512 48.0005L368.001 192L512 192Z" fill="var(--flag-palette-blue, #0052b4)"/>
<path d="M288.001 224L224.001 288L224.001 512L288.001 512L288.001 288L512 288L512 224L288.001 224Z" fill="var(--flag-palette-bright-red, #d80027)"/>
<path d="M512 480L352.001 320L320.001 320L512 512L512 480Z" fill="var(--flag-palette-bright-red, #d80027)"/>
<path d="M32.0005 512L192.001 352L192.001 320L0.000518799 512L32.0005 512Z" fill="var(--flag-palette-bright-red, #d80027)"/>
</svg>

<svg xmlns="http://www.w3.org/2000/svg" width="512" height="512" fill="none"><path fill="var(--flag-palette-white, #eeeeee)" d="M0 0h512v512H0z"/><path fill="var(--flag-palette-bright-red, #d80027)" d="M0 122.4V55.7h512v66.7zM0 256v-66.8h512V256zm0 133.6v-66.8h512v66.8zM0 512h512v-55.7H0z"/><path fill="var(--flag-palette-blue, #0052b4)" d="M0 0h256v256H0z"/><path fill="var(--flag-palette-white, #eeeeee)" fill-rule="evenodd" d="m44.8 6.4 8.6 26.5h28L58.6 49.3 67.4 76 44.8 59.5 22.2 75.9 31 49.3 8.3 33h27.9zm83.2 0 8.6 26.5h28l-22.7 16.4 8.7 26.6L128 59.5l-22.6 16.4 8.6-26.6L91.6 33h27.9zm91.8 26.5-8.6-26.5-8.6 26.5h-28l22.7 16.4-8.7 26.6 22.6-16.4 22.6 16.4-8.7-26.6L247.8 33zm-175 56.7 8.6 26.5h28l-22.7 16.4 8.7 26.6-22.6-16.4L22.2 159l8.7-26.6L8.3 116h27.9zm91.8 26.5L128 89.6l-8.6 26.5h-28l22.6 16.4-8.6 26.6 22.6-16.4 22.6 16.4-8.7-26.6 22.6-16.4zm74.6-26.5 8.6 26.5h28L225 132.5l8.7 26.6-22.6-16.4-22.6 16.4 8.7-26.6-22.6-16.4h27.9zM53.4 199.3l-8.6-26.5-8.6 26.5h-28L31 215.7l-8.7 26.6 22.6-16.4 22.6 16.4-8.7-26.6 22.6-16.4zm74.6-26.5 8.6 26.5h28l-22.7 16.4 8.7 26.6-22.6-16.4-22.6 16.4 8.6-26.6-22.5-16.4h27.9zm91.8 26.5-8.6-26.5-8.6 26.5h-28l22.7 16.4-8.7 26.6 22.6-16.4 22.6 16.4-8.7-26.6 22.6-16.4z" clip-rule="evenodd"/><path fill="var(--flag-palette-white, #eeeeee)" d="M512 0v512H16l176-176v-16l32-32h64v-64z"/><path fill="var(--flag-palette-blue, #0052b4)" d="M320 368v144h144zM48 512l144-144v144zm320-192 144 144V320zm144-128V48L368 192z"/><path fill="var(--flag-palette-bright-red, #d80027)" d="m288 224-64 64v224h64V288h224v-64z"/><path fill="var(--flag-palette-bright-red, #d80027)" d="M512 480 352 320h-32l192 192zM32 512l160-160v-32L0 512z"/></svg>
